icon-themes/sifr_svg/cmd/sc_compilebasic.svg

<svg viewBox="0 0 16 16" xmlns="http://www.w3.org/2000/svg"><path d="m15 8a7 7 0 0 0 -7-7 7 7 0 0 0 -7 7 7 7 0 0 0 7 7 7 7 0 0 0 7-7zm-2 0a5 5 0 0 1 -5 5 5 5 0 0 1 -5-5 5 5 0 0 1 5-5 5 5 0 0 1 5 5zm-1-2h-8l4 5z" fill="#555753"/></svg>

<svg xmlns="http://www.w3.org/2000/svg" viewBox="0 0 16 16">
  <path
     style="fill:#555753"
     d="M 15,8 A 7,7 0 0 0 8,1 7,7 0 0 0 1,8 7,7 0 0 0 8,15 7,7 0 0 0 15,8 Z M 13,8 A 5,5 0 0 1 8,13 5,5 0 0 1 3,8 5,5 0 0 1 8,3 5,5 0 0 1 13,8 Z M 12,6 H 4 l 4,5 z"
     />
</svg>
